X: 13
T: Jenny's Welcome To Charlie
Z: Possum
S: https://thesession.org/tunes/370#setting47058
R: reel
M: 4/4
L: 1/8
K: Ddor
|:D3c/B/ AGED|Ec~c2 dc~c2|D3c/B/ AGED|EGcE EDCE|
D3c/B/ AGED|Ec~c2 d2cd|e/d/cdB AGED|D/E/GcG EDD2:|
|:f3d efed|cA Ac GAce|fedf eAcd|eaag edde|
~f3f efed|cAAc GAcd|e/d/cdB AGED|D/E/GcG EDD2:|
|:a3 a-a2 e^f|g^fga ged2|eaag gaag|eaag edd2|
a3 a-a2 e^f|g^fga gedB|GA /B/c/d ecdc|/A/B/cGE EDD2:|
|:Addc defc|GccB cdec|Addc d2 cd|eaag edd2|
~d2ce dcAB|~c2cd cAGE|D2(3EFG AGAd|cAGE EDD2:|

